!!!!SEGMENT: pl-sa--377-a-viii-17--005_anonim--pani-nad-ziemia.krn
!!!cenid: 17xx:1727
!!!COM: Anonim
!!!COM-rismid: pe30004985
!!!CDT:
!!!CNT:
!!!OTL: Pani nad ziemią
!!!PDT:
!!!AGN: Sacred
!!!SMS-siglum: PL-SA
!!!SMS-shelfmark: 377/A VIII 17
!!!SMS-shelfwork: 005 W
!!!SMS-variant:
!!!SMS-altvar:
!!!NIFC-rismid: 1001077382
!!!URL-scan: http://bc.bdsandomierz.pl/dlibra/publication/1681/edition/1649/content
!!!ONB-nifc: UWAGA: str. 7
!!!key:
**kern	**text	**text	**text	**text	**text	**text	**text	**text
*I"Canto.	*	*	*	*	*	*	*	*
*I'S	*	*	*	*	*	*	*	*
*Isoprn	*	*	*	*	*	*	*	*
*ICvox	*	*	*	*	*	*	*	*
*clefC1	*	*	*	*	*	*	*	*
*k[]	*	*	*	*	*	*	*	*
*e:	*	*	*	*	*	*	*	*
*M3/1	*	*	*	*	*	*	*	*
=1	=1	=1	=1	=1	=1	=1	=1	=1
*2\right	*v:1	*	*v:2	*	*v:3	*	*v:4	*
1b	Pa-	An-	Po-	a	kro-	Beſ-	Wzy-	Ta-
1a	-ni	-gie-	koÿ	Woy-	-lom	-pecz-	-wa	-kie-
1dd	nad	-li	bo-	-na	zwy-	-nÿ	cię	-mi
=2	=2	=2	=2	=2	=2	=2	=2	=2
(1.cc	zię-	chwa	-ga-	w Swo-	-cieſ-	ſkarb	zdię-	zac-
2b\)	.	.	.	.	.	.	.	.
1a	-mią	lą	-tÿ	-im	-two	iest	-tÿ	-na
=3	=3	=3	=3	=3	=3	=3	=3	=3
(1.dd	kro-	ÿ	w twych	nie-	Ber-	na	ſwiat	wspa-
2cc\)	.	.	.	.	.	.	.	.
1b	-lo-	z lu-	kwit-	-mi-	-ła	two-	za-	-nia-
=4	=4	=4	=4	=4	=4	=4	=4	=4
(2cc\	-wa	-diem	-nie	-ze	ko-	-im	-ło-	-ło-
2b\)	.	.	.	.	.	.	.	.
0a	w nie-	Cie-	Rę-	dzwię-	-ro-	tro-	-scia-	-scia-
=5	=5	=5	=5	=5	=5	=5	=5	=5
0.g	-bie	-bie	-ku.	-ku	-nie	-nie	-mi	-mi
=6:|!	=6:|!	=6:|!	=6:|!	=6:|!	=6:|!	=6:|!	=6:|!	=6:|!
1a	.	Zwy-	.	Cno-	.	Row-	.	Uſ-
1b	.	-cięſ-	.	-ta	.	-nec	.	-ta-
1cc	.	-zco	.	ÿ	.	z Nay-	.	-now
=7	=7	=7	=7	=7	=7	=7	=7	=7
0b	.	piek-	.	God-	.	-wy-	.	Woy-
1a	.	-ła	.	-nosć	.	-ſzy	.	-nÿ
!!linebreak:original
=8	=8	=8	=8	=8	=8	=8	=8	=8
1g	Na-	Męſ-	Pan-	ÿ	.	.	.	.
1a	-ro-	-two	-ſtwo	rze-	.	.	.	.
1b	-dow	ÿ	ÿ	-ki	.	.	.	.
=9	=9	=9	=9	=9	=9	=9	=9	=9
0a	zdro-	zy-	wła-	krwa-	.	.	.	.
1g	-wie	-cie	-dza	-we	.	.	.	.
=10	=10	=10	=10	=10	=10	=10	=10	=10
1a	Bog	za	two-	krol	.	.	.	.
1dd	cię	twą	-im	naſz	.	.	.	.
1b	ſwą	przy-	wy-	zwy-	.	.	.	.
=11	=11	=11	=11	=11	=11	=11	=11	=11
0cc	bra-	-czy-	-ro-	-cię-	.	.	.	.
1a	-mą	-ną	-kom	-ſtwo	.	.	.	.
=12	=12	=12	=12	=12	=12	=12	=12	=12
(1.dd	ÿ	pły-	nic	niech	.	.	.	.
2cc\)	.	.	.	.	.	.	.	.
1b	klu-	-ną	nie	wez-	.	.	.	.
=13	=13	=13	=13	=13	=13	=13	=13	=13
1cc	-czem	ob-	przeſz-	-mie	.	.	.	.
0a	zo-	-fi-	-ka-	pra-	.	.	.	.
=14	=14	=14	=14	=14	=14	=14	=14	=14
0.b	-wie	-cie	-dza.	-we.	.	.	.	.
==	==	==	==	==	==	==	==	==
*-	*-	*-	*-	*-	*-	*-	*-	*-
!!!system-decoration: [(s1)]
!!!ENC: Katarzyna Serwa
!!!END: 2021-12-30
!!!ENC: Tomasz Grochalski
!!!END: 2021-01-18
